img/youtube.svg

<svg width="21" height="20" viewBox="0 0 21 20" fill="none" xmlns="http://www.w3.org/2000/svg">
<path id="youtube" fill-rule="evenodd" clip-rule="evenodd" d="M10.3333 0C4.81081 0 0.333313 4.4775 0.333313 10C0.333313 15.5225 4.81081 20 10.3333 20C15.8558 20 20.3333 15.5225 20.3333 10C20.3333 4.4775 15.8558 0 10.3333 0ZM14.0341 14.0767C12.2825 14.1967 8.38081 14.1967 6.63165 14.0767C4.73498 13.9467 4.51415 13.0183 4.49998 10C4.51415 6.97583 4.73748 6.05333 6.63165 5.92333C8.38081 5.80333 12.2833 5.80333 14.0341 5.92333C15.9316 6.05333 16.1516 6.98167 16.1666 10C16.1516 13.0242 15.9291 13.9467 14.0341 14.0767ZM12.7641 9.99667L8.66665 8.04833V11.9517L12.7641 9.99667Z" fill="white"/>
</svg>

<svg width="21" height="20" fill="none" xmlns="http://www.w3.org/2000/svg"><path fill-rule="evenodd" clip-rule="evenodd" d="M10.333 0c-5.522 0-10 4.478-10 10 0 5.523 4.478 10 10 10 5.523 0 10-4.477 10-10 0-5.522-4.477-10-10-10zm3.701 14.077c-1.752.12-5.653.12-7.402 0C4.735 13.947 4.514 13.018 4.5 10c.014-3.024.237-3.947 2.132-4.077 1.749-.12 5.651-.12 7.402 0 1.898.13 2.118 1.059 2.133 4.077-.015 3.024-.238 3.947-2.133 4.077zm-1.27-4.08L8.667 8.048v3.904l4.097-1.955z" fill="#fff"/></svg>
